X:3122
T:Clumsy Lover, The
C:Neil Dickie
R:reel
H:Usually played in Amix, sometimes in Dmix. Also as a jig #211.
H:Version 2 from irtrad-l, posted by Keith Elliot.
H:Version 3 from irtrad-l, posted by Caroline Foty.
Z:id:hn-reel-312
M:C|
K:Amix
ce~e2 fece|df~f2 gfed|ce~e2 fece|dBBA ~B3d|
ce~e2 fedc|df~f2 gfed|ceec dfed|cAAG A2AB:|
|:c2ec acec|d2fd adfd|c2ec acec|d2Bc dedB|
c2ac acac|d2ad adad|ceec dfed|cAAG A2AB:|
"Version 2:"
ceef ecBA|dffd afdf|ceef ecBA|d2Bc decB|
ceef ecBA|dffd gfed|ceec dBGB|BAAB A2ed:|
|:ceea aecA|dAdf afdf|ceea aecA|d2Bc decB|
ceea aecA|dAdf afdf|ceec d2GB|BAAB A2ed:|
|:ceec eece|dffd ffdf|ceec eece|dBBc decB|
ceec eece|dffd ffdf|ceec d2GB|BAAB A2ed:|
|:caae aecA|daad aAde|caae aecA|d2Bc decB|
caae aecA|daad aAda|ceec d2GB|BAAB A2ed:|
|:ceeA e2Ae|d3f gfed|ceeA e2Ae|dBBc decB|
ceeA e2Ae|d3f gfed|ceec d2GB|BAAB A2ed:|
|:caac aaca|daad aada|caac aaca|Baca daea|
caac aaca|daaf aada|ceec d2GB|BAAB A2ed:||
"Version 3:"
ceef ecBA|dffd gfed|ceef ecBA|d2Bc d2cB|
ceef ecBA|dffd gfed|ceec d2dB|BAAB A3d:|
|:ceea aecA|dAdf afdf|ceea aecA|d2Bc d2cB|
ceea aecA|dAdf afdf|ceec d2dB|BAAB A3d:|
|:ceeA e2cA|d2f g2 fed|ceeA e2cA|d2Bc d2cB|
ceeA e2cA|d2f g2 fed|ceec d2dB|BAAB A3d:|
|:ceac aaca|dfad aadf|ceac aace|d2Bc d2cB|
ceac aaca|dfad aadf|ceec d2dB|BAAB A3d:|
K:Dmix
FA~A2 BAFA|GB~B2 cBAG|FA~A2 BAFA|GEED ~E3G|
FA~A2 BAFA|GB~B2 cBAG|FAAF GBAG|FDDE D2DE:|
|:F2AF dFAF|G2BG dGBG|F2AF dFAF|G2EF GAGE|
F2dF dFdF|G2dG dGdG|FAAF GBAG|FDDE D2DE:|


